src/images/admin/admin_f3_0.svg

<svg height="417" viewBox="0 0 373 417" width="373" xmlns="http://www.w3.org/2000/svg"><path d="m454 2067v26.66667l-24 13.33333v-26.66667zm-94 0 24 13.33333v26.66667l-24-13.33333zm-70-40 23 13.33333v26.66667l-23-13.33333zm233 0v26.66667l-23 13.33333v-26.66667zm-256-122 70 40.33333v80.66667l-70-40.33333zm-47 81 23 13.33333v26.66667l-23-13.33333zm140 0 24 13.33333v26.66667l-24-13.33333zm94 0v26.66667l-24 13.33333v-26.66667zm93-81v80.66667l-70 40.33333v-80.66667zm46 81v26.66667l-23 13.33333v-26.66667zm-233-80 24 13.33333v26.66667l-24-13.33333zm-140 0 23 13.33333v26.66667l-23-13.33333zm234 0v26.66667l-24 13.33333v-26.66667zm139 0v26.66667l-23 13.33333v-26.66667zm-303-41 23 13.33333v26.66667l-23-13.33333zm233 0v26.66667l-23 13.33333v-26.66667zm-116-13 23 13.5-23 13.5-23-13.5zm-187-27 23 13.33333v26.66667l-23-13.33333zm373 0v26.66667l-23 13.33333v-26.66667zm-256-14 23 13.5-23 13.5-23-13.5zm140 0 23 13.5-23 13.5-23-13.5zm-70-67 70 40.5-70 40.5-70-40.5zm139.732673 27 23.267327 13.5-23.267327 13.5-23.732673-13.5zm-280.465346 0 23.732673 13.5-23.732673 13.5-23.267327-13.5zm210.732673-40 23 13.5-23 13.5-23-13.5zm-140 0 23 13.5-23 13.5-23-13.5zm70-41 23 13.72881-23 13.27119-23-13.27119z" fill="#96dbfb" fill-opacity=".5" transform="translate(-220 -1690)"/></svg>

<?xml version="1.0" encoding="UTF-8"?>
<svg width="373px" height="417px" viewBox="0 0 373 417" version="1.1" xmlns="http://www.w3.org/2000/svg" xmlns:xlink="http://www.w3.org/1999/xlink">
    <!-- Generator: Sketch 62 (91390) - https://sketch.com -->
    <title>admin_f3_0</title>
    <desc>Created with Sketch.</desc>
    <g id="light" stroke="none" stroke-width="1" fill="none" fill-rule="evenodd" fill-opacity="0.5">
        <g id="Admin" transform="translate(-220.000000, -1690.000000)" fill="#96DBFB" fill-rule="nonzero">
            <path d="M454,2067 L454,2093.66667 L430,2107 L430,2080.33333 L454,2067 Z M360,2067 L384,2080.33333 L384,2107 L360,2093.66667 L360,2067 Z M290,2027 L313,2040.33333 L313,2067 L290,2053.66667 L290,2027 Z M523,2027 L523,2053.66667 L500,2067 L500,2040.33333 L523,2027 Z M267,1905 L337,1945.33333 L337,2026 L267,1985.66667 L267,1905 Z M220,1986 L243,1999.33333 L243,2026 L220,2012.66667 L220,1986 Z M360,1986 L384,1999.33333 L384,2026 L360,2012.66667 L360,1986 Z M454,1986 L454,2012.66667 L430,2026 L430,1999.33333 L454,1986 Z M547,1905 L547,1985.66667 L477,2026 L477,1945.33333 L547,1905 Z M593,1986 L593,2012.66667 L570,2026 L570,1999.33333 L593,1986 Z M360,1906 L384,1919.33333 L384,1946 L360,1932.66667 L360,1906 Z M220,1906 L243,1919.33333 L243,1946 L220,1932.66667 L220,1906 Z M454,1906 L454,1932.66667 L430,1946 L430,1919.33333 L454,1906 Z M593,1906 L593,1932.66667 L570,1946 L570,1919.33333 L593,1906 Z M290,1865 L313,1878.33333 L313,1905 L290,1891.66667 L290,1865 Z M523,1865 L523,1891.66667 L500,1905 L500,1878.33333 L523,1865 Z M407,1852 L430,1865.5 L407,1879 L384,1865.5 L407,1852 Z M220,1825 L243,1838.33333 L243,1865 L220,1851.66667 L220,1825 Z M593,1825 L593,1851.66667 L570,1865 L570,1838.33333 L593,1825 Z M337,1811 L360,1824.5 L337,1838 L314,1824.5 L337,1811 Z M477,1811 L500,1824.5 L477,1838 L454,1824.5 L477,1811 Z M407,1744 L477,1784.5 L407,1825 L337,1784.5 L407,1744 Z M546.732673,1771 L570,1784.5 L546.732673,1798 L523,1784.5 L546.732673,1771 Z M266.267327,1771 L290,1784.5 L266.267327,1798 L243,1784.5 L266.267327,1771 Z M477,1731 L500,1744.5 L477,1758 L454,1744.5 L477,1731 Z M337,1731 L360,1744.5 L337,1758 L314,1744.5 L337,1731 Z M407,1690 L430,1703.72881 L407,1717 L384,1703.72881 L407,1690 Z" id="admin_f3_0"></path>
        </g>
    </g>
</svg>
